!!!COM: Schubert, Franz
!!!CNT: Deutscher
!!!TXO: Deutsch
!!!LYR: Ernst Schulze
!!!OTL: "Im Walde"
!!!OPS: Op. 93
!!!ONM: No. 1
!!!ODT: 1825/
!!NB: Vocal melody only encoded.
!!NB: Original key: b minor
**kern	**silbe
*clefG2	*
*k[b-e-]	*
*met(C)	*
*M4/4	*
*MM[Nicht zu schnell]	*
=8	=8
2r	.
4r	.
{4d	{Ich
=9	=9
4g	wand'-
4d	-re
8g	u2-
8f#	|
8g	-ber
8a	|
=10	=10
4b-	Berg
4cc	und
4.dd	Tal
8b-	und
=11	=11
4a	u2-
8b-	-ber
8cc	|
4b-	gru2-
4a	-ne
=12	=12
2b-	Hai-
4g}	-den,}
{4g	{und
=13	=13
4g	mit
4e-	mir
8g	wan-
8f	|
8g	-dert
8a-	|
=14	=14
4b-	mei-
4g	-ne
4.ee-}	Qual,}
{8ee-	{will
=15	=15
4ee-	nim-
4ee-	-mer
4ee-	von
4ee-	mir
=16	=16
2ee-	schei-
4cc-}	-den,}
{4cc-	{will
=17	=17
8b-	nim-
8cc-	|
8b-	-mer
8cc-	|
8b-	von
8cc-	|
8b-	mir
8cc-	|
=18	=18
2b-	schei-
4e-}	-den.}
8r	.
{8e-	{Und
=19	=19
4d	schifft'
4d	ich
4d	auch
4d	durch's
=20	=20
4.e-	wei-
8e-	-te
4.e-}	Meer,}
{8e-	{sie
=21	=21
4en	ka2m'
4e	auch
4e	dort
4e	wohl
=22	=22
4.f	hin-
8f	-ter-
4f}	-her,}
{4f#	{sie
=23	=23
4.g	ka2m'
8b-	auch
8.dd	dort
16cc	wohl
8a-	hin-
8b-	-ter-
=24	=24
4g}	-her,}
8r	.
{8dd	{und
4cc	schifft'
4ee-	ich
=25	=25
4.dd	auch
8b-	durch's
4a	wei-
4dd	-te
=26	=26
4.b-}	Meer,}
{8dd	{sie
4cc	ka2m'
4ee-	auch
=27	=27
4dd	dort
8cc	wohl
8b-	|
4a	hin-
4dd	-ter-
=28	=28
2g}	-her.}
2r	.
=29	=29
1r	.
=30	=30
1r	.
=31	=31
1r	.
=32	=32
1r	.
=33	=33
1r	.
=34	=34
2r	.
4r	.
{4b-	{Wohl
=35	=35
4.a	blu2h'n
8f#	viel
8d	Blu-
8f#	|
8f#	-men
8a	|
=36	=36
4a	auf
4dd	der
4.a}	Flur,}
{8f#	{die
=37	=37
8g	hab'
8f#	|
8g	ich
8a	|
8cc#	nicht
8bn	|
8a	ge-
8g	|
=38	=38
4f#	-se-
4d}	-hen,}
4r	.
{4a	{denn
=39	=39
4.bn	ei-
8g	-ne
8d	Blu-
8g	|
8g	-me
8b	|
=40	=40
4dd	seh'
4een	ich
4.dd}	nur}
{8bn	{auf
=41	=41
4.dd	al-
8cc	-len
4bn	We-
4a	-gen
=42	=42
aq	ste-
4bn	|
4b}	-hen,}
4r	.
{4a	{denn
=43	=43
4.bn	ei-
8g	-ne
8d	Blu-
8g	|
8g	-me
8b	|
=44	=44
4dd	seh'
4een	ich
4.dd}	nur}
{8bn	{auf
=45	=45
4.dd	al-
8cc	-len
4bn	We-
4a	-gen
=46	=46
aq	ste-
4g	|
4g}	-hen.}
4r	.
{4g	{Nach
=47	=47
4.dd	ihr
8dd	hab'
4dd	ich
4dd	mich
=48	=48
ddq	oft
4.cc#	|
8cc#	geb
4cc#}	u2ckt}
{4cc#	{und
=49	=49
4.cc	doch
8cc	sie
4ee-	nim-
8dd	-mer
8cc	|
=50	=50
ccq	ab-
4.b-	|
8b-	-ge-
4b-}	-pflu2ckt,}
{4b-	{nach
=51	=51
4.a	ihr
8a	hab'
8dd	ich
8cc	|
8b-	mich
8a	|
=52	=52
aq	oft
4.g#	|
8g#	ge-
4g#}	-bu2ckt}
{4g#	{und
=53	=53
4.g	doch
8g	sie
4b-	nim-
8a	-mer
8g	|
=54	=54
gq	ab-
4.f	|
8f	-ge-
4.f}	-pflu2ckt,}
{8a	{und
=55	=55
4a	doch
4b-	sie
4cc#	nim-
4dd	-mer
=56	=56
2.een	ab-
4cc#	-ge-
=57	=57
2dd}	-pflu2ckt.}
2r	.
=58	=58
1r	.
=59	=59
1r	.
=60	=60
1r	.
=61	=61
1r	.
=62	=62
1r	.
=63	=63
1r	.
=64	=64
1r	.
=65	=65
2r	.
4r	.
{4d	{Die
=66	=66
4g	Bie-
4d	-nen
8g	sum-
8f#	|
8g	-men
8a	|
=67	=67
4bn	durch
4cc	das
4.dd}	Gras}
{8b	{und
=68	=68
4a	ha2n-
8bn	-gen
8cc	|
4b	an
4a	den
=69	=69
2bn	Blu2-
4g}	-ten;}
8r	.
{8g	{das
=70	=70
4g	macht
4e-	mein
8g	Au-
8f	|
8g	-ge
8a-	|
=71	=71
4b-	tru2b'
4g	und
4.ee-}	nass,}
{8ee-	{ich
=72	=72
4ee-	kann
4ee-	mir's
4ee-	nicht
4ee-	ver-
=73	=73
2ee-	-bie-
4cc-}	-ten,}
{4cc-	{ich
=74	=74
8b-	kann
8cc-	|
8b-	mir's
8cc-	|
8b-	nicht
8cc-	|
8b-	ver-
8cc-	|
=75	=75
2b-	-bie-
4e-}	-ten.}
8r	.
{8e-	{Ihr
=76	=76
4d	su2-
4d	-ssen
4d	Lip-
4d	-pen,
=77	=77
4.e-	rot
8e-	und
4e-}	weich,}
{4e-	{wohl
=78	=78
4en	hing'
4e	ich
4e	nim-
4e	-mer
=79	=79
4.f	so
8f	an
4f}	euch,}
{4f#	{wohl
=80	=80
4.g	hing'
8b-	ich
8.dd	nim-
16cc	-mer
8a	so
8b-	an
=81	=81
4g}	euch,}
8r	.
{8dd	{ihr
4cc	su2-
4ee-	-ssen
=82	=82
4dd	Lip-
4b-	-pen
4a	rot
4dd	und
=83	=83
4.b-}	weich,}
{8dd	{wohl
4cc	hing'
4ee-	ich
=84	=84
4dd	nim-
8cc	-mer
8b-	|
4a	so
4dd	an
=85	=85
2g}	euch!}
2r	.
=86	=86
1r	.
=87	=87
1r	.
=88	=88
1r	.
=89	=89
1r	.
=90	=90
1r	.
=91	=91
2r	.
4r	.
{4d	{Gar
=92	=92
4g	lieb-
4d	-lich
8g	sin-
8f#	|
8g	-gen
8a	|
=93	=93
4bn	nah
4cc	und
4.dd}	fern}
{8b	{die
=94	=94
4a	Vo2g-
8bn	-lein
8cc	|
4b	auf
4a	den
=95	=95
2bn	Zwei-
4g}	-gen;}
8r	.
{8g	{wohl
=96	=96
4g	sa2ng'
4e-	ich
8g	mit
8f	|
8g	den
8a-	|
=97	=97
4b-	Vo2-
4g	-geln
4.ee-}	gern,}
{8ee-	{doch
=98	=98
4ee-	muss
4ee-	ich
4ee-	trau-
4ee-	-rig
=99	=99
2ee-	schwei-
4cc-}	-gen}
{4cc-	{doch
=100	=100
8b-	muss
8cc-	|
8b-	ich
8cc-	|
8b-	trau-
8cc-	|
8b-	-rig
8cc-	|
=101	=101
2b-	schwei-
4e-}	-gen.}
8r	.
{8e-	{Denn
=102	=102
4.d	Lie-
8d	-bes-
4d	-lust
4d	und
=103	=103
4.e-	Lie-
8e-	-bes-
4e-}	-pein,}
{4e-	{die
=104	=104
4.en	blei-
8e	-ben
4e	je-
4e	-des
=105	=105
4.f	gern
8f	al-
4f}	-lein,}
{4f#	{die
=106	=106
4.g	blei-
8b-	-ben
8.dd	je-
16cc	-des
8a	gern
8b-	al-
=107	=107
4.g}	-lein,}
{8dd	{denn
4cc	Lie-
4ee-	-bes-
=108	=108
4.dd	-lust
8b-	und
4a	Lie-
4dd	-bes-
=109	=109
4.b-}	-pein,}
{8dd	{die
4cc	blei-
4ee-	-ben
=110	=110
4dd	je-
8cc	-des
8b-	|
4a	gern
4dd	al-
=111	=111
2g}	-lein.}
2r	.
=112	=112
1r	.
=113	=113
1r	.
=114	=114
1r	.
=115	=115
1r	.
=116	=116
1r	.
=117	=117
2r	.
4r	.
{4b-	{Am
=118	=118
4.a	Him-
8f#	-mel
4d	seh'
4f#	ich
=119	=119
4a	flu2-
4dd	-gel-
4.a}	-schnell}
{8f#	{die
=120	=120
8g	Wol-
8f#	|
8g	-ken
8a	|
8cc#	wei-
8bn	|
8a	-ter
8g	|
=121	=121
4f#	zei-
4d}	-hen,}
4r	.
{4a	{die
=122	=122
4.bn	Wel-
8g	-le
8d	rie-
8g	|
8g	-selt
8b	|
=123	=123
4dd	leicht
4een	und
4.dd}	hell,}
{8bn	{muss
=124	=124
4.dd	im-
8cc	-mer
4bn	nah'n
4a	und
=125	=125
aq	flie-
4cc-	|
4cc-}	-hen,}
4r	.
{4a	{die
=126	=126
4.bn	Wel-
8g	-le
8d	rie-
8g	|
8g	-selt
8b	|
=127	=127
4dd	leicht
4een	und
4.dd}	hell,}
{8bn	{muss
=128	=128
4.dd	im-
8cc	-mer
4bn	nah'n
4a	und
=129	=129
aq	flie-
4g	|
4g}	-hen.}
4r	.
{4bn	{Doch
=130	=130
4.dd	ha-
8g	-schen,
8g	wenn's
8bn	|
8b	vom
8dd	|
=131	=131
4.dd	Win-
8cc#	-de
4.cc#}	ruht,}
{8cc#	{sich
=132	=132
4.cc	Wolk'
8cc	und
8cc	Wol-
8een	|
8dd	-ke
8cc	|
=133	=133
4.cc	Flut
8bn	und
4b}	Flut,}
{4b	{doch
=134	=134
4.a	ha-
8a	-schen,
8dd	wenn's
8cc#	|
8bn	vom
8a	|
=135	=135
4.a	Win-
8g#	-de
4g#}	ruht,}
{4g#	{sich
=136	=136
4.g	Wolk'
8g	und
8g	Wol-
8bn	|
8a	-ke,
8g	|
=137	=137
4.g	Flut
8f#	und
4f#}	Flut,}
8r	.
{8a	{sich
=138	=138
4a	Wolk'
4bn	und
4cc#	Wol-
4dd	-ke,
=139	=139
2.een	Flut
4cc#	und
=140	=140
2dd}	Flut.}
2r	.
=141	=141
1r	.
=142	=142
1r	.
=143	=143
1r	.
=144	=144
1r	.
=145	=145
1r	.
=146	.=146
1r	.
=147	=147
1r	.
=148	=148
2r	.
4r	.
{4d	{Ich
=149	=149
4g	wand'-
4d	-re
8g	hin,
8f#	|
8g	ich
8a	|
=150	=150
4b-	wand'-
4cc	-re
4.dd}	her}
{8b-	{bei
=151	=151
4a	Sturm
8b-	und
8cc	|
4b-	hei-
4a	-tern
=152	=152
2b-	Ta-
4g}	-gen,}
{4g	{und
=153	=153
4g	doch
4e-	er-
8g	-schau'
8f	|
8g	ist's
8a-	|
=154	=154
4b-	nim-
4g	-mer-
4.ee-}	-mehr}
{8ee-	{und
=155	=155
4ee-	kann
4ee-	es
4ee-	nicht
4ee-	er-
=156	=156
2ee-	-ja-
4cc-}	-gen,}
{4cc-	{und
=157	=157
8b-	kann
8cc-	|
8b-	es
8cc-	|
8b-	bucgt
8cc-	|
8b-	er-
8cc-	|
=158	=158
2b-	-ja-
4e-}	-gen.}
8r	.
{8e-	{O
=159	=159
4d	Lie-
4d	-bes-
4d	-seh-
4d	-nen,
=160	=160
4.e-	Lie-
8e-	-bes-
4e}-	-qual,}
8r	.
{8e-	{o
=161	=161
4en	Lie-
4e	-bes-
4e	-seh-
4e	-nen,
=162	=162
4.f	Lie-
8f	-bes-
4f}	qual,}
{4f#	{wann
=163	=163
4.g	ruht
8b-	der
8.dd	Wan-
16cc	-de-
8a	-rer
8b-	ein-
=164	=164
4g}	-mal,}
8r	.
{8dd	{o
4cc	Lie-
4ee-	-bes-
=165	=165
4dd	-seh-
4b-	-nen,
4a	Lie-
4dd	-bes-
=166	=166
4.b-}	-qual,}
{8dd	{wann
4cc	ruht
4ee-	der
=167	=167
4.dd	Wan-
8b-	-de-
4a	-rer
4dd	ein-
=168	=168
2g}	-mal?}
2r	.
==	==
*-	*-
